packages/ui-icons/src/Basic/16/Football_16.svg

<?xml version="1.0" encoding="utf-8"?>
<svg version="1.1" id="Слой_1" xmlns="http://www.w3.org/2000/svg" xmlns:xlink="http://www.w3.org/1999/xlink" x="0px" y="0px"
	 viewBox="0 0 20 20" style="enable-background:new 0 0 20 20;" xml:space="preserve">
<path id="Shape" d="M8.49248,16.83728C8.97803,16.94385,9.48246,17.00001,10,17.00001s1.02197-0.05617,1.50752-0.16273
	l1.06801-3.29235l3.46082,0.00165c0.5041-0.85614,0.83125-1.82895,0.9312-2.86814l-2.80025-2.03246l1.07065-3.28978
	c-0.66992-0.75508-1.50062-1.36428-2.43844-1.77394L10,5.61826l-2.79951-2.036C6.26268,3.99192,5.43198,4.60112,4.76205,5.3562
	l1.07065,3.28978l-2.80025,2.03246c0.09994,1.0392,0.4271,2.012,0.9312,2.86814l3.46082-0.00165L8.49248,16.83728L8.49248,16.83728z
	 M7.32185,16.46941l-0.62418-1.92414l-2.02062,0.00097C5.38934,15.37942,6.29383,16.04337,7.32185,16.46941L7.32185,16.46941z
	 M3.02122,9.45095l1.63551-1.18708l-0.62567-1.9225C3.46721,7.25932,3.10918,8.31726,3.02122,9.45095L3.02122,9.45095z
	 M8.36429,3.19216L10,4.38176l1.63571-1.18961C11.11096,3.06654,10.56325,3.00001,10,3.00001S8.88904,3.06654,8.36429,3.19216
	L8.36429,3.19216z M15.96894,6.34138l-0.62567,1.9225l1.63551,1.18708C16.89082,8.31726,16.53279,7.25932,15.96894,6.34138
	L15.96894,6.34138z M15.32294,14.54624l-2.02062-0.00097l-0.62418,1.92414C13.70617,16.04337,14.61066,15.37942,15.32294,14.54624
	L15.32294,14.54624z M10,18.00001c-4.41828,0-8-3.58172-8-8s3.58172-8,8-8s8,3.58172,8,8S14.41828,18.00001,10,18.00001z
	 M10,6.88198l2.96543,2.15451l-1.13269,3.48607H8.16727L7.03457,9.03649L10,6.88198z M8.21014,9.41845l0.68366,2.1041h2.21238
	l0.68366-2.1041L10,8.11805L8.21014,9.41845z"/>
</svg>

<svg xmlns="http://www.w3.org/2000/svg" viewBox="0 0 20 20" style="enable-background:new 0 0 20 20" xml:space="preserve"><path d="M8.492 16.837a7.026 7.026 0 0 0 3.016 0l1.068-3.292 3.46.002a6.956 6.956 0 0 0 .932-2.869l-2.8-2.032 1.07-3.29A7.019 7.019 0 0 0 12.8 3.582L10 5.618 7.2 3.582a7.019 7.019 0 0 0-2.438 1.774l1.07 3.29-2.8 2.032c.1 1.04.428 2.012.932 2.869l3.46-.002 1.068 3.292zm-1.17-.368-.624-1.924-2.021.001a7.018 7.018 0 0 0 2.645 1.923zm-4.3-7.018 1.635-1.187L4.03 6.34a6.958 6.958 0 0 0-1.01 3.11zm5.342-6.259L10 4.382l1.636-1.19a7.02 7.02 0 0 0-3.272 0zm7.605 3.15-.626 1.922L16.98 9.45a6.958 6.958 0 0 0-1.01-3.11zm-.646 8.204h-2.02l-.625 1.923a7.018 7.018 0 0 0 2.645-1.923zM10 18a8 8 0 1 1 0-16 8 8 0 0 1 0 16zm0-11.118 2.965 2.154-1.132 3.487H8.167L7.035 9.036 10 6.882zM8.21 9.418l.684 2.105h2.212l.684-2.105-1.79-1.3-1.79 1.3z"/></svg>
